site/static/images/icons/question.svg

<svg fill="none" height="32" viewBox="0 0 32 32" width="32" xmlns="http://www.w3.org/2000/svg"><path clip-rule="evenodd" d="m16 3c-7.1797 0-13 5.8203-13 13 0 7.1798 5.8203 13 13 13 7.1798 0 13-5.8202 13-13 0-7.1797-5.8202-13-13-13zm-16 13c0-8.83656 7.16344-16 16-16 8.8366 0 16 7.16344 16 16 0 8.8366-7.1634 16-16 16-8.83656 0-16-7.1634-16-16zm18 6c0 1.1046-.8954 2-2 2s-2-.8954-2-2 .8954-2 2-2 2 .8954 2 2zm-4.1584-9.8292c.1611-.322.379-.5985.6779-.7977.2896-.193.743-.3731 1.4805-.3731.5595 0 1.1058.1731 1.475.45.3291.2468.525.5702.525 1.05 0 .3532-.0816.5276-.1543.6367-.0907.1361-.2472.2865-.5528.4903-.1528.1018-.3171.2008-.5178.3212l-.0123.0074c-.1874.1124-.4087.2452-.6262.3902-.4444.2963-.9755.7084-1.3847 1.3224-.4595.6894-.2732 1.6206.4161 2.0801s1.6206.2732 2.0801-.4161c.0907-.1361.2472-.2866.5528-.4903.1527-.1019.3171-.2009.5178-.3213l.0124-.0074.0001-.0001c.1873-.1124.4085-.2451.6259-.39.4444-.2963.9754-.7084 1.3847-1.3223.4274-.6409.6582-1.404.6582-2.3008 0-1.5202-.7208-2.69684-1.725-3.45-.9642-.72312-2.1678-1.05-3.275-1.05-1.2625 0-2.3091.31992-3.1446.87692-.8261.55074-1.3581 1.27428-1.697 1.95228-.3705.7409-.0702 1.642.6708 2.0124.7409.3705 1.642.0702 2.0124-.6708z" fill="#8492a6" fill-rule="evenodd"/></svg>

<svg width="32" height="32" viewBox="0 0 32 32" fill="none" xmlns="http://www.w3.org/2000/svg">
	<path fill-rule="evenodd" clip-rule="evenodd" d="M16 3C8.8203 3 3 8.8203 3 16C3 23.1798 8.8203 29 16 29C23.1798 29 29 23.1798 29 16C29 8.8203 23.1798 3 16 3ZM0 16C0 7.16344 7.16344 0 16 0C24.8366 0 32 7.16344 32 16C32 24.8366 24.8366 32 16 32C7.16344 32 0 24.8366 0 16ZM18 22C18 23.1046 17.1046 24 16 24C14.8954 24 14 23.1046 14 22C14 20.8954 14.8954 20 16 20C17.1046 20 18 20.8954 18 22ZM13.8416 12.1708C14.0027 11.8488 14.2206 11.5723 14.5195 11.3731C14.8091 11.1801 15.2625 11 16 11C16.5595 11 17.1058 11.1731 17.475 11.45C17.8041 11.6968 18 12.0202 18 12.5C18 12.8532 17.9184 13.0276 17.8457 13.1367C17.755 13.2728 17.5985 13.4232 17.2929 13.627C17.1401 13.7288 16.9758 13.8278 16.7751 13.9482L16.7628 13.9556L16.7628 13.9556C16.5754 14.068 16.3541 14.2008 16.1366 14.3458C15.6922 14.6421 15.1611 15.0542 14.7519 15.6682C14.2924 16.3576 14.4787 17.2888 15.168 17.7483C15.8573 18.2078 16.7886 18.0215 17.2481 17.3322C17.3388 17.1961 17.4953 17.0456 17.8009 16.8419C17.9536 16.74 18.118 16.641 18.3187 16.5206L18.3311 16.5132L18.3312 16.5131C18.5185 16.4007 18.7397 16.268 18.9571 16.1231C19.4015 15.8268 19.9325 15.4147 20.3418 14.8008C20.7692 14.1599 21 13.3968 21 12.5C21 10.9798 20.2792 9.80316 19.275 9.05C18.3108 8.32688 17.1072 8 16 8C14.7375 8 13.6909 8.31992 12.8554 8.87692C12.0293 9.42766 11.4973 10.1512 11.1584 10.8292C10.7879 11.5701 11.0882 12.4712 11.8292 12.8416C12.5701 13.2121 13.4712 12.9118 13.8416 12.1708Z" fill="#8492A6" />
</svg>
